assets/icons/qvision/shop_two.svg

<svg xmlns="http://www.w3.org/2000/svg" height="24" viewBox="0 0 24 24" width="24"><path d="M0 0h24v24H0z" fill="none"/><path d="M3 9H1v11c0 1.11.89 2 2 2h14c1.11 0 2-.89 2-2H3V9zm15-4V3c0-1.11-.89-2-2-2h-4c-1.11 0-2 .89-2 2v2H5v11c0 1.11.89 2 2 2h14c1.11 0 2-.89 2-2V5h-5zm-6-2h4v2h-4V3zm0 12V8l5.5 3-5.5 4z"/></svg>

<svg width="24" height="24" viewBox="0 0 24 24" fill="none" xmlns="http://www.w3.org/2000/svg">
<g clip-path="url(#clip0_147_4760)">
<path d="M3 9H1V20C1 21.11 1.89 22 3 22H17C18.11 22 19 21.11 19 20H3V9ZM18 5V3C18 1.89 17.11 1 16 1H12C10.89 1 10 1.89 10 3V5H5V16C5 17.11 5.89 18 7 18H21C22.11 18 23 17.11 23 16V5H18ZM12 3H16V5H12V3ZM12 15V8L17.5 11L12 15Z" fill="#323232"/>
</g>
<defs>
<clipPath id="clip0_147_4760">
<rect width="24" height="24" fill="white"/>
</clipPath>
</defs>
</svg>
